!! 00000] TT[WS
!!!OTL: Li hun
!!!ARE: Asia, China,ÿShanxi Dingxiang
!! Ethnic Group: Han
!! WI, 93
!!!SCT: J0111
!!!YEM: Copyright 1995, estate of Helmut Schaffrath.
**kern
*ICvox
*Ivox
*M2/4
*k[f#]
*G:
{8ddd
8bb
4bb
=1
8ddd
8bb
4bb
=2
8aa
8bb
4ddd
=3
8ddd
8ccc
8bb
8aa}
=4
{8ff#
4aa
8bb
=5
8.ddd
16bb
8bb
8bb
=6
8aa
8gg
8ff#
8ee
=7
2dd}
=8
{8dd
8cc
4dd
=9
8ff#
4aa
8bb
=10
8aa
8aa
8aa
8ff#
=11
8aa
8ff#
4aa}
=12
{8ff#
4aa
8bb
=13
8bb
8ddd
8bb
8bb
=14
8bb
8ff#
8bb
8aa
=15
8.ff#
16ee
4dd}
==
!!!AGN: Xiaodiao. Qingge, Aisu
!!!ONB: ESAC (Essen Associative Code) Database: CHINA
!!!AMT: simple duple
!!!AIN: vox
!!!EED: Helmut Schaffrath
!!!EEV: 1.0
*-
